X: 4401
T: "SNOWDROP" POLKA
R: Polka
%R: polka
B: James Kerr "Merry Melodies" v.4 p.44 #401
Z: 2016 John Chambers <jc:trillian.mit.edu>
M: 2/4
L: 1/16
K: G
"_p 2nd f"d2 |\
dGBd edBG | F2c2 c4 | FGAB cdef | gGBd g2G2 |\
dGBd edBG | F2c2 c4 | D^CDE FGAB | G2g2G2 H::\
!f!c2 |\
ccc2 eee2 | ddd2 g4 |
fff2 a4 | ggg2 b4 |\
ccc2 eee2 | ddd2 g4 | ^ccc2 f2e2 | d2dd "_D.C."d2 :| [K:=f]\
[K:C]\
"Trio."|: !p!G2 |\
(E2F2^F2G2) | (c6 B2) | (A3B) (dcBA) | G6 G2 |
F2d2F3F | E2c2E3E | D2B2A2D2 | G2GG (.G2.G2) |\
(E2F2^F2G2) | (c6 B2) | A2B2c2d2 | e6 e2 |\
d2g2f3A | G2f2e3e | e2d2B3G | "_D.C."c6 :|

%%sep 1 1 500
%%sep 1 1 500

